icons/cloud/cloud-sun-hail.svg

<svg width="14" height="14" viewBox="0 0 14 14" fill="none"
    xmlns="http://www.w3.org/2000/svg">
    <g clip-path="url(#clip0_18_287)">
        <path d="M4.91113 4.65509C5.63448 3.93191 6.79172 3.91673 7.53613 4.59747C7.29248 4.72824 7.05788 4.88303 6.83496 5.06134C6.7789 5.10619 6.72453 5.15284 6.6709 5.20001C6.33185 5.02408 5.90351 5.07692 5.61816 5.36212C5.2762 5.70408 5.26754 6.25242 5.58984 6.60626C5.52636 6.73391 5.46743 6.86381 5.41602 6.99689H5.01172C4.89032 6.99689 4.76971 7.00404 4.65039 7.01642C4.18421 6.28121 4.26989 5.29633 4.91113 4.65509Z" fill="blue"/>
        <path d="M6 3V1M8.12132 3.87868L9.53553 2.46447M3 6H1M3.87868 3.87868L2.46447 2.46446" stroke="blue" stroke-linecap="round" stroke-linejoin="round"/>
        <path d="M6.3333 9.49677V8.65483C6.3333 7.71218 6.76179 6.82063 7.49788 6.23176V6.23176C8.73255 5.24403 10.5125 5.34261 11.6305 6.46065L11.9642 6.79431C12.9809 7.811 13.2329 9.3642 12.5899 10.6502L12.3375 11.1551C11.9263 11.9774 11.0859 12.4968 10.1666 12.4968V12.4968M6.3333 8.49677H4.7375C4.0685 8.49677 3.44365 8.8314 3.07268 9.38812C2.62505 10.0599 2.62507 10.9351 3.07298 11.6067L3.11175 11.6648C3.45842 12.1846 4.04187 12.4968 4.66663 12.4968" stroke="red" stroke-linecap="round" stroke-linejoin="round"/>
        <circle cx="6" cy="13" r="0.5" fill="green"/>
        <circle cx="7.5" cy="13.5" r="0.5" fill="green"/>
        <circle cx="9" cy="13" r="0.5" fill="green"/>
        <path d="M9.0127 10.5V11.5" stroke="green" stroke-linecap="round" stroke-linejoin="round"/>
        <path d="M7.5 11V12" stroke="green" stroke-linecap="round" stroke-linejoin="round"/>
        <path d="M6 11V11.5" stroke="green" stroke-linecap="round" stroke-linejoin="round"/>
    </g>
    <defs>
        <clipPath id="clip0_18_287">
            <rect width="14" height="14" fill="white"/>
        </clipPath>
    </defs>
</svg>

<svg xmlns="http://www.w3.org/2000/svg" width="14" height="14" fill="none" viewBox="0 0 14 14"><g clip-path="url(#a)"><path fill="#00f" d="M4.911 4.655a1.9 1.9 0 0 1 2.625-.058 4.6 4.6 0 0 0-.865.603.902.902 0 0 0-1.081 1.406 5 5 0 0 0-.174.39h-.404q-.182.001-.362.02a1.9 1.9 0 0 1 .261-2.36"/><path stroke="#00f" stroke-linecap="round" stroke-linejoin="round" d="M6 3V1m2.121 2.879 1.415-1.415M3 6H1m2.879-2.121L2.464 2.464"/><path stroke="red" stroke-linecap="round" stroke-linejoin="round" d="M6.333 9.497v-.842c0-.943.429-1.834 1.165-2.423v0a3.103 3.103 0 0 1 4.132.229l.334.333a3.34 3.34 0 0 1 .626 3.856l-.252.505a2.43 2.43 0 0 1-2.171 1.342v0m-3.834-4H4.737a2 2 0 0 0-1.664 3.11l.039.058c.346.52.93.832 1.555.832"/><circle cx="6" cy="13" r=".5" fill="green"/><circle cx="7.5" cy="13.5" r=".5" fill="green"/><circle cx="9" cy="13" r=".5" fill="green"/><path stroke="green" stroke-linecap="round" stroke-linejoin="round" d="M9.013 10.5v1M7.5 11v1M6 11v.5"/></g><defs><clipPath id="a"><path fill="#fff" d="M0 0h14v14H0z"/></clipPath></defs></svg>
